X:01
T: Dionne Reel
M: 4/4
L: 1/8
Z: Contributed 20011212055550 by Zina Lee zlee@ntw.net
K: D
cB || Adfd gdfd | Adfd edcB | Adfd gdfd | egec d2 cB :|
|:afbf afde | f2 ed Bcdf | afbf afde | f2 ec d2 fg :|
|:Adfd gdfd | Adfd edcB | Adfd gdfd | egec d2 cB:|
|:afbf afde | f=fed Bcd^f | afbf afde | f2 ec d2 fg :|
|:B2 AG B2 AG | _BBAG EFGA | B2 AG B2 AG | FADF G4 :|
||D2 FA DAFD | G2 BD G2 =cB| Acef gece | defg abaf|
D2 FA dAFD | G2 Bd g2 (3fgf |Acef gece | dfec d2 cB||
||D2 FA dAFA | D2 Bd g2 (3fgf | Acef gedA | {de}d2 {cd}c2 {Bc}B2 {AB}A2 |
D2 FA dAFA | D2 BG =c2 (3B=cB | Acef gecA | dfec defg ||
|:a2 fd adfd | g2 e=c g=ce=c | a2 fd adfd | gece defg :|
